X: 89
T: Stures Schottis
K:Gm
M:4/4
L:1/8
P:A
D2 |:"Gm"G3/2^F/ G/A3/2 B3/2A/ B/c3/2 |d3/2e/ d/c3/2 B2 G2 |"D"D2 ^FA d3/2c/ B/A3/2 |"Gm"G3/2A/ B/c3/2 "D"d2 D2 |
"Gm"G3/2^F/ G/A3/2 B3/2A/ B/c3/2 |d3/2e/ d/c3/2 B2 G2 |"D"D2 ^FA d3/2c/ B/A3/2 ||1"Gm"G2 B2 G2 D2 :|2"Gm"G2 B2 G2 A2 ||
P:B
|:"Bb"B3/2d/ d/d3/2 B3/2d/ d/d3/2 |B3/2d/ d/d3/2 edcB |"F"A3/2c/ c/c3/2 A3/2c/ c/c3/2 |A3/2c/ c/c3/2 "D7"dcBA |
"Cm7"G3/2B/ B/B3/2 G3/2B/ B/B3/2 |G3/2B/ B/B3/2 cBAG |"D"D2 ^FA d3/2c/ B/A3/2 ||1"Gm"G2 B2 G2 A2 :|2"Gm"G2 B2 G2 |]

